icons/glyphs/glyph-wifi.svg

<?xml version="1.0" encoding="UTF-8" standalone="no"?><svg height="16" viewBox="0 0 4.2333333 4.2333333" width="16" xmlns="http://www.w3.org/2000/svg"><sodipodi:namedview/><metadata><rdf:RDF><cc:Work><dc:format>image/svg+xml</dc:format><dc:type/><dc:title/></cc:Work></rdf:RDF></metadata><path d="m2.1161695.39578792c-.766495.00070319-1.5326008.29253331-2.1161695.87610208l.358993.358993c.9725657-.97256588 2.5397988-.97256512 3.5123637 0l .3619766-.3619763c-.5835689-.5835687-1.3506689-.87382202-2.1171638-.87311878zm0 .84527438c-.5502308.0007032-1.1001128.2100886-1.5185107.6284864l.358993.3599875c.6422236-.6422231 1.6748229-.643218 2.3170462-.0009944l.3619766-.3619764c-.4183979-.4183979-.9692744-.6262062-1.5195051-.6255031zm-.0009929.8403023c-.3351583.0000001-.6704702.1265112-.9248297.3808707l.3609803.3619764c.314147-.314147.8155381-.3171297 1.1296845-.00298l.358993-.3589964c-.2543595-.2543594-.5896715-.3808708-.9248297-.3808707zm.0009929.8582019a.44901089.44901089 0 0 0 -.4494872.4494874.44901089.44901089 0 0 0  .4494872.4484925.44901089.44901089 0 0 0  .4484926-.4484925.44901089.44901089 0 0 0 -.4484926-.4494874z" fill="#d0d0d0" opacity=".99" stroke-width=".449792"/></svg>

<?xml version="1.0" encoding="UTF-8" standalone="no"?>
<!-- Created with Inkscape (http://www.inkscape.org/) -->

<svg
     xmlns:dc="http://purl.org/dc/elements/1.1/"
     xmlns:cc="http://creativecommons.org/ns#"
     xmlns:rdf="http://www.w3.org/1999/02/22-rdf-syntax-ns#"
     xmlns:svg="http://www.w3.org/2000/svg"
     xmlns="http://www.w3.org/2000/svg"
     xmlns:sodipodi="http://sodipodi.sourceforge.net/DTD/sodipodi-0.dtd"
     xmlns:inkscape="http://www.inkscape.org/namespaces/inkscape"
     width="16"
     height="16"
     viewBox="0 0 4.2333333 4.2333333"
     version="1.1"
     id="svg8"
     inkscape:version="0.92+devel (78cebbf91a, 2017-07-21, custom)"
     sodipodi:docname="glyph-wifi.svg">
    <defs
         id="defs2" />
    <sodipodi:namedview
         id="base"
         pagecolor="#002466"
         bordercolor="#ffffff"
         borderopacity="0.38039216"
         inkscape:pageopacity="1"
         inkscape:pageshadow="2"
         inkscape:zoom="54.75"
         inkscape:cx="8"
         inkscape:cy="8"
         inkscape:document-units="px"
         inkscape:current-layer="svg8"
         inkscape:document-rotation="0"
         showgrid="false"
         inkscape:showpageshadow="false"
         borderlayer="true"
         inkscape:window-width="1920"
         inkscape:window-height="1051"
         inkscape:window-x="0"
         inkscape:window-y="0"
         inkscape:window-maximized="1"
         units="px"
         inkscape:snap-center="true"
         inkscape:snap-object-midpoints="true" />
    <metadata
         id="metadata5">
        <rdf:RDF>
            <cc:Work
                 rdf:about="">
                <dc:format>image/svg+xml</dc:format>
                <dc:type
                     rdf:resource="http://purl.org/dc/dcmitype/StillImage" />
                <dc:title></dc:title>
            </cc:Work>
        </rdf:RDF>
    </metadata>
    <path
         style="opacity:0.98999999;fill:#d0d0d0;stroke-width:0.4497917"
         d="M 2.1161695,0.39578792 C 1.3496745,0.39649111 0.5835687,0.68832123 0,1.27189 l 0.358993,0.358993 c 0.9725657,-0.97256588 2.5397988,-0.97256512 3.5123637,0 L 4.2333333,1.2689067 C 3.6497644,0.685338 2.8826644,0.39508468 2.1161695,0.39578792 Z m 0,0.84527438 C 1.5659387,1.2417655 1.0160567,1.4511509 0.5976588,1.8695487 l 0.358993,0.3599875 C 1.5988754,1.5873131 2.6314747,1.5863182 3.273698,2.2285418 L 3.6356746,1.8665654 C 3.2172767,1.4481675 2.6664002,1.2403592 2.1161695,1.2410623 Z m -9.929e-4,0.8403023 c -0.3351583,10e-8 -0.6704702,0.1265112 -0.9248297,0.3808707 L 1.5513272,2.8242117 C 1.8654742,2.5100647 2.3668653,2.507082 2.6810117,2.8212317 L 3.0400047,2.4622353 C 2.7856452,2.2078759 2.4503332,2.0813645 2.115175,2.0813646 Z m 9.929e-4,0.8582019 A 0.44901089,0.44901089 0 0 0 1.6666823,3.3890539 0.44901089,0.44901089 0 0 0 2.1161695,3.8375464 0.44901089,0.44901089 0 0 0 2.5646621,3.3890539 0.44901089,0.44901089 0 0 0 2.1161695,2.9395665 Z"
         id="path830"
         inkscape:label="#"
         inkscape:connector-curvature="0" />
</svg>
